source/img/clients/logo-client-1.svg

<svg width="141" height="16" viewBox="0 0 141 16" fill="none" xmlns="http://www.w3.org/2000/svg">
<path d="M2.7 0.999999H0.4V15H8.4V12.8H2.7V0.999999ZM21.3086 13.16C22.7286 11.74 23.4286 10.02 23.4286 8C23.4286 5.98 22.7286 4.26 21.3086 2.86C19.9086 1.44 18.1886 0.739999 16.1686 0.739999C14.1486 0.739999 12.4286 1.44 11.0086 2.86C9.60859 4.26 8.90859 5.98 8.90859 8C8.90859 10.02 9.60859 11.74 11.0086 13.16C12.4286 14.56 14.1486 15.26 16.1686 15.26C18.1886 15.26 19.9086 14.56 21.3086 13.16ZM12.6286 11.6C11.6886 10.64 11.2086 9.44 11.2086 8C11.2086 6.56 11.6886 5.36 12.6286 4.42C13.5886 3.46 14.7686 2.98 16.1686 2.98C17.5686 2.98 18.7486 3.46 19.6886 4.42C20.6486 5.36 21.1286 6.56 21.1286 8C21.1286 9.44 20.6486 10.64 19.6886 11.6C18.7486 12.54 17.5686 13.02 16.1686 13.02C14.7686 13.02 13.5886 12.54 12.6286 11.6ZM32.5466 7.76V9.82H37.2266C36.8066 11.76 35.1866 13.02 32.7066 13.02C31.1666 13.02 29.9066 12.54 28.9466 11.6C28.0066 10.66 27.5266 9.46 27.5266 8.02C27.5266 6.58 28.0066 5.38 28.9466 4.42C29.8866 3.46 31.1066 2.98 32.5666 2.98C34.3866 2.98 35.9466 3.86 36.6866 5.2L38.6666 4.06C37.4666 2.04 35.1866 0.739999 32.5666 0.739999C30.4866 0.739999 28.7466 1.44 27.3266 2.86C25.9266 4.26 25.2266 5.98 25.2266 8C25.2266 10.04 25.9266 11.76 27.3266 13.16C28.7466 14.56 30.5266 15.26 32.6866 15.26C34.7266 15.26 36.3866 14.66 37.6466 13.44C38.9066 12.22 39.5466 10.64 39.5466 8.72V7.76H32.5466ZM53.7492 13.16C55.1692 11.74 55.8692 10.02 55.8692 8C55.8692 5.98 55.1692 4.26 53.7492 2.86C52.3492 1.44 50.6292 0.739999 48.6092 0.739999C46.5892 0.739999 44.8692 1.44 43.4492 2.86C42.0492 4.26 41.3492 5.98 41.3492 8C41.3492 10.02 42.0492 11.74 43.4492 13.16C44.8692 14.56 46.5892 15.26 48.6092 15.26C50.6292 15.26 52.3492 14.56 53.7492 13.16ZM45.0692 11.6C44.1292 10.64 43.6492 9.44 43.6492 8C43.6492 6.56 44.1292 5.36 45.0692 4.42C46.0292 3.46 47.2092 2.98 48.6092 2.98C50.0092 2.98 51.1892 3.46 52.1292 4.42C53.0892 5.36 53.5692 6.56 53.5692 8C53.5692 9.44 53.0892 10.64 52.1292 11.6C51.1892 12.54 50.0092 13.02 48.6092 13.02C47.2092 13.02 46.0292 12.54 45.0692 11.6ZM70.3872 15.26C71.6672 15.26 72.8472 14.96 73.9072 14.36C74.9872 13.74 75.8272 12.92 76.4072 11.9L74.4072 10.76C73.6872 12.14 72.1472 13.02 70.3872 13.02C68.8872 13.02 67.6872 12.54 66.7472 11.6C65.8272 10.66 65.3672 9.46 65.3672 8C65.3672 6.54 65.8272 5.34 66.7472 4.4C67.6872 3.46 68.8872 2.98 70.3872 2.98C72.1472 2.98 73.6672 3.86 74.4072 5.24L76.4072 4.08C75.2072 2.02 72.9272 0.739999 70.3872 0.739999C68.2872 0.739999 66.5272 1.44 65.1472 2.84C63.7672 4.22 63.0672 5.94 63.0672 8C63.0672 10.06 63.7672 11.78 65.1472 13.18C66.5272 14.56 68.2872 15.26 70.3872 15.26ZM81.018 0.999999H78.718V15H86.718V12.8H81.018V0.999999ZM88.825 15H91.125V0.999999H88.825V15ZM96.6227 9.02H102.223V6.84H96.6227V3.2H102.723V0.999999H94.3227V15H102.823V12.8H96.6227V9.02ZM113.728 10.5L107.128 0.999999H105.328V15H107.628V5.5L114.228 15H116.028V0.999999H113.728V10.5ZM118.124 0.999999V3.2H122.084V15H124.384V3.2H128.324V0.999999H118.124ZM134.685 2.3L135.245 4.26L138.065 3.46V15H140.365V0.999999H138.365L134.685 2.3Z" fill="#F2F2F2"/>
</svg>

<svg width="141" height="16" fill="none" xmlns="http://www.w3.org/2000/svg"><path d="M2.7 1H.4v14h8v-2.2H2.7V1zm18.609 12.16c1.42-1.42 2.12-3.14 2.12-5.16s-.7-3.74-2.12-5.14c-1.4-1.42-3.12-2.12-5.14-2.12-2.02 0-3.74.7-5.16 2.12-1.4 1.4-2.1 3.12-2.1 5.14 0 2.02.7 3.74 2.1 5.16 1.42 1.4 3.14 2.1 5.16 2.1s3.74-.7 5.14-2.1zm-8.68-1.56c-.94-.96-1.42-2.16-1.42-3.6s.48-2.64 1.42-3.58c.96-.96 2.14-1.44 3.54-1.44s2.58.48 3.52 1.44c.96.94 1.44 2.14 1.44 3.58s-.48 2.64-1.44 3.6c-.94.94-2.12 1.42-3.52 1.42s-2.58-.48-3.54-1.42zm19.918-3.84v2.06h4.68c-.42 1.94-2.04 3.2-4.52 3.2-1.54 0-2.8-.48-3.76-1.42-.94-.94-1.42-2.14-1.42-3.58s.48-2.64 1.42-3.6 2.16-1.44 3.62-1.44c1.82 0 3.38.88 4.12 2.22l1.98-1.14c-1.2-2.02-3.48-3.32-6.1-3.32-2.08 0-3.82.7-5.24 2.12-1.4 1.4-2.1 3.12-2.1 5.14 0 2.04.7 3.76 2.1 5.16 1.42 1.4 3.2 2.1 5.36 2.1 2.04 0 3.7-.6 4.96-1.82 1.26-1.22 1.9-2.8 1.9-4.72v-.96h-7zm21.202 5.4c1.42-1.42 2.12-3.14 2.12-5.16s-.7-3.74-2.12-5.14C52.35 1.44 50.63.74 48.61.74s-3.74.7-5.16 2.12c-1.4 1.4-2.1 3.12-2.1 5.14 0 2.02.7 3.74 2.1 5.16 1.42 1.4 3.14 2.1 5.16 2.1s3.74-.7 5.14-2.1zm-8.68-1.56c-.94-.96-1.42-2.16-1.42-3.6s.48-2.64 1.42-3.58c.96-.96 2.14-1.44 3.54-1.44s2.58.48 3.52 1.44c.96.94 1.44 2.14 1.44 3.58s-.48 2.64-1.44 3.6c-.94.94-2.12 1.42-3.52 1.42s-2.58-.48-3.54-1.42zm25.318 3.66c1.28 0 2.46-.3 3.52-.9 1.08-.62 1.92-1.44 2.5-2.46l-2-1.14c-.72 1.38-2.26 2.26-4.02 2.26-1.5 0-2.7-.48-3.64-1.42-.92-.94-1.38-2.14-1.38-3.6s.46-2.66 1.38-3.6c.94-.94 2.14-1.42 3.64-1.42 1.76 0 3.28.88 4.02 2.26l2-1.16c-1.2-2.06-3.48-3.34-6.02-3.34-2.1 0-3.86.7-5.24 2.1-1.38 1.38-2.08 3.1-2.08 5.16s.7 3.78 2.08 5.18c1.38 1.38 3.14 2.08 5.24 2.08zM81.018 1h-2.3v14h8v-2.2h-5.7V1zm7.807 14h2.3V1h-2.3v14zm7.798-5.98h5.6V6.84h-5.6V3.2h6.1V1h-8.4v14h8.5v-2.2h-6.2V9.02zm17.105 1.48l-6.6-9.5h-1.8v14h2.3V5.5l6.6 9.5h1.8V1h-2.3v9.5zm4.396-9.5v2.2h3.96V15h2.3V3.2h3.94V1h-10.2zm16.561 1.3l.56 1.96 2.82-.8V15h2.3V1h-2l-3.68 1.3z" fill="#F2F2F2"/></svg>
